public/icons/hand-heart.svg

<svg width="24" height="25" viewBox="0 0 24 25" fill="none" xmlns="http://www.w3.org/2000/svg">
<g clip-path="url(#clip0_573_353)">
<path d="M21.8438 1.36426C20.6806 1.36426 19.7344 2.31052 19.7344 3.47363V8.65285C18.9072 8.01516 17.7155 8.07484 16.9573 8.83313L12.876 12.9146C12.8759 12.9147 12.8757 12.9149 12.8756 12.915C12.5294 13.2612 12.2363 13.6463 12 14.0602C11.7636 13.6463 11.4705 13.2612 11.1243 12.915C11.1242 12.9149 11.124 12.9147 11.1239 12.9146L7.04264 8.83313C6.28439 8.07484 5.09278 8.01516 4.26553 8.65285V3.47363C4.26553 2.31052 3.31927 1.36426 2.15616 1.36426C0.993047 1.36426 0.046875 2.31052 0.046875 3.47363V11.1515C0.046875 12.4101 0.490594 13.6357 1.29628 14.6025L4.73438 18.7282V20.1143H4.5C4.11169 20.1143 3.79688 20.4291 3.79688 20.8174V23.6299C3.79688 24.0182 4.11169 24.333 4.5 24.333H19.5C19.8883 24.333 20.2031 24.0182 20.2031 23.6299V20.8174C20.2031 20.4291 19.8883 20.1143 19.5 20.1143H19.2656V18.7282L22.7037 14.6025C23.5094 13.6357 23.9531 12.4101 23.9531 11.1515V3.47363C23.9531 2.31052 23.0069 1.36426 21.8438 1.36426ZM11.2969 22.9268H5.20312V21.5205H11.2969V22.9268ZM11.2969 20.1143H6.14062V18.4736C6.14062 18.3091 6.08297 18.1499 5.97764 18.0235L2.37661 13.7022C1.78106 12.9877 1.45312 12.0818 1.45312 11.1515V3.47363C1.45312 3.08593 1.76855 2.77051 2.15625 2.77051C2.54395 2.77051 2.85938 3.08593 2.85938 3.47363V9.15957C2.85938 10.0986 3.22509 10.9815 3.88913 11.6455L6.882 14.6383C7.15655 14.9129 7.60177 14.9129 7.87636 14.6383C8.15095 14.3638 8.15095 13.9186 7.87636 13.644L5.05336 10.821C4.77956 10.5463 4.77975 10.1018 5.05411 9.82745C5.32866 9.5529 5.77383 9.55295 6.04838 9.82749L10.1296 13.9089C10.1297 13.909 10.1299 13.9092 10.13 13.9094C10.8825 14.6619 11.2969 15.6624 11.2969 16.7266V20.1143ZM18.7969 22.9268H12.7031V21.5205H18.7969V22.9268ZM22.5469 11.1515C22.5469 12.0818 22.2189 12.9877 21.6234 13.7023L18.0224 18.0235C17.917 18.1499 17.8594 18.3091 17.8594 18.4736V20.1143H12.7031V16.7266C12.7031 15.6624 13.1175 14.6619 13.8701 13.9093C13.8702 13.9092 13.8704 13.909 13.8705 13.9089L17.9517 9.82745C18.2263 9.5529 18.6714 9.55285 18.946 9.8274C19.2203 10.1017 19.2205 10.5463 18.9467 10.8209L16.1237 13.6439C15.8491 13.9185 15.8491 14.3637 16.1237 14.6383C16.3983 14.9128 16.8435 14.9128 17.1181 14.6383L20.111 11.6454C20.775 10.9815 21.1407 10.0986 21.1407 9.15952V3.47363C21.1407 3.08593 21.4561 2.77051 21.8438 2.77051C22.2315 2.77051 22.547 3.08593 22.547 3.47363V11.1515H22.5469Z" fill="#AE9F91"/>
<path d="M11.5028 9.50067C11.7774 9.77526 12.2226 9.77526 12.4971 9.50067L16.4933 5.50448C17.6748 4.323 17.6748 2.40061 16.4933 1.21912C15.3119 0.0376367 13.3895 0.0376367 12.208 1.21912L11.9999 1.42715L11.7919 1.21912C10.6105 0.0376835 8.68809 0.0376835 7.5066 1.21912C6.32512 2.40061 6.32512 4.323 7.50656 5.50443L11.5028 9.50067ZM8.50101 2.21348C9.1342 1.58029 10.1644 1.58029 10.7976 2.21348L11.5028 2.91867C11.7774 3.19326 12.2226 3.19326 12.4971 2.91867L13.2024 2.21348C13.8356 1.58029 14.8658 1.58029 15.499 2.21348C16.1322 2.84667 16.1322 3.87689 15.499 4.51012L12 8.00911L8.50096 4.51007C7.86777 3.87693 7.86777 2.84667 8.50101 2.21348Z" fill="#AE9F91"/>
</g>
<defs>
<clipPath id="clip0_573_353">
<rect width="24" height="24" fill="white" transform="translate(0 0.333008)"/>
</clipPath>
</defs>
</svg>

<svg xmlns="http://www.w3.org/2000/svg" fill="none" viewBox="0 0 24 25"><g fill="#ae9f91" clip-path="url(#a)"><path d="M21.844 1.364c-1.163 0-2.11.947-2.11 2.11v5.179a2.11 2.11 0 0 0-2.777.18l-4.081 4.082c-.347.346-.64.731-.876 1.145a5.4 5.4 0 0 0-.876-1.145L7.043 8.833a2.11 2.11 0 0 0-2.777-.18v-5.18c0-1.162-.947-2.109-2.11-2.109s-2.11.947-2.11 2.11v7.678a5.4 5.4 0 0 0 1.25 3.45l3.438 4.126v1.386H4.5a.703.703 0 0 0-.703.703v2.813c0 .388.315.703.703.703h15a.703.703 0 0 0 .703-.703v-2.813a.703.703 0 0 0-.703-.703h-.234v-1.386l3.438-4.126a5.4 5.4 0 0 0 1.25-3.45V3.474c0-1.163-.947-2.11-2.11-2.11M11.297 22.927H5.203V21.52h6.094zm0-2.813H6.14v-1.64a.7.7 0 0 0-.163-.45l-3.601-4.322a4 4 0 0 1-.924-2.55V3.474a.704.704 0 0 1 1.406 0V9.16c0 .939.366 1.822 1.03 2.486l2.993 2.992a.703.703 0 1 0 .994-.994l-2.823-2.823a.703.703 0 0 1 .995-.994l4.082 4.082a3.96 3.96 0 0 1 1.167 2.818zm7.5 2.813h-6.094V21.52h6.094zm3.75-11.775c0 .93-.328 1.836-.924 2.55l-3.6 4.321a.7.7 0 0 0-.164.45v1.641h-5.156v-3.387c0-1.065.415-2.065 1.167-2.818l4.082-4.082a.703.703 0 0 1 .995.994l-2.823 2.823a.703.703 0 1 0 .994.994l2.993-2.993a3.5 3.5 0 0 0 1.03-2.485V3.474a.704.704 0 0 1 1.406 0z"/><path d="M11.503 9.5c.274.275.72.275.994 0l3.996-3.996a3.034 3.034 0 0 0 0-4.285 3.034 3.034 0 0 0-4.285 0L12 1.427l-.208-.208a3.034 3.034 0 0 0-4.285 0 3.034 3.034 0 0 0 0 4.285zM8.5 2.214a1.626 1.626 0 0 1 2.297 0l.705.706c.274.274.72.274.994 0l.705-.706a1.626 1.626 0 0 1 2.297 0 1.626 1.626 0 0 1 0 2.297L12 8.01l-3.499-3.5a1.626 1.626 0 0 1 0-2.297"/></g><defs><clipPath id="a"><path fill="#fff" d="M0 .333h24v24H0z"/></clipPath></defs></svg>
